X:205
T: BRUEDER JETZT GEHTS IN DEN KRIEG
N: E1344
O: Europa, Mitteleuropa, Deutschland, Sueddeutschland
R: Staende -, Soldaten -, Kriegs - Lied
M: 3/4
L: 1/8
K: Bb
 | FBBBBc | B2AGF2 |
GGG2B2 | F3ED2 |
F2F2B2 | G3GG2 |
BBA2c2 | BABcd2 |
egf2ee | d6

@@@ Tune index: 4889
